X: 9107
T: Da Sneck O' Da Smaalie
R: reel
M: 4/4
K: Bminor
fBBd cBcd|FBdB ecAc|fBBd cBcd|BdcA Bcde|
fBBd cBcd|FBdB ecAc|fBBd cBcd|BdcA B3A||
FBBd cBcd|edcd fdcB|FBBd cBcd|edcd B3A|
FBBd cBcd|edcd fdcB|FBBd cBcd|edcd Bcde||

